X:178
T: WENN DER FRUEHLING KOMMT VON DEN BERGEN SCHAUT
N: B0212
O: Europa, Mitteleuropa, Deutschland, Westfalen, Engste
R: Jahreszeiten - Lied, Fruehling
M: 3/4
L: 1/16
K: D
A2A2 | F2F2D4A2A2 | G2G2E4
A2A2 | e2d2c2B2A2G2 | F2A2d4
A2A2 | F2F2D4A2A2 | G2G2E4
A2A2 | e2d2c2B2A2G2 | F2A2d4
A2A2 | F2F2D2D2d2d2 | B2B2G2G2
E2E2 | c3BA2A2G2C2 | D8

@@@ Tune index: 1981
